public/flags/BZ.svg

<svg fill="none" height="53" viewBox="0 0 61 53" width="61" xmlns="http://www.w3.org/2000/svg" xmlns:xlink="http://www.w3.org/1999/xlink"><mask id="a" height="43" maskUnits="userSpaceOnUse" width="59" x="1" y="3"><rect fill="#fff" height="42.5" rx="4.24286" width="59" x="1" y="3"/></mask><rect fill="#fff" height="42.5" rx="4.24286" width="59" x="1" y="3"/><g clip-rule="evenodd" fill-rule="evenodd" mask="url(#a)"><path d="m1 39.8333h59v-31.16664h-59z" fill="#094995"/><path d="m1 8.66667h59v-5.66667h-59z" fill="#d5182f"/><path d="m1 45.5h59v-5.6667h-59z" fill="#d5182f"/><path d="m30.5 37c6.9825 0 12.6429-5.7084 12.6429-12.75s-5.6604-12.75-12.6429-12.75c-6.9824 0-12.6428 5.7084-12.6428 12.75s5.6604 12.75 12.6428 12.75z" fill="#fff"/><path d="m30.5001 32.75c4.655 0 8.4286-3.8056 8.4286-8.5s-3.7736-8.5-8.4286-8.5-8.4286 3.8056-8.4286 8.5 3.7736 8.5 8.4286 8.5z" stroke="#118014" stroke-dasharray="1.41 4.24" stroke-linecap="round" stroke-width="2.82857"/></g></svg>

<svg width="61" height="53" viewBox="0 0 61 53" fill="none" xmlns="http://www.w3.org/2000/svg">
<rect x="1" y="3" width="59" height="42.5" rx="4.24286" fill="white"/>
<mask id="mask0" mask-type="alpha" maskUnits="userSpaceOnUse" x="1" y="3" width="59" height="43">
<rect x="1" y="3" width="59" height="42.5" rx="4.24286" fill="white"/>
</mask>
<g mask="url(#mask0)">
<path fill-rule="evenodd" clip-rule="evenodd" d="M1 39.8333H60V8.66666H1V39.8333Z" fill="#094995"/>
<path fill-rule="evenodd" clip-rule="evenodd" d="M1 8.66667H60V3H1V8.66667Z" fill="#D5182F"/>
<path fill-rule="evenodd" clip-rule="evenodd" d="M1 45.5H60V39.8333H1V45.5Z" fill="#D5182F"/>
<path fill-rule="evenodd" clip-rule="evenodd" d="M30.5 37C37.4825 37 43.1429 31.2916 43.1429 24.25C43.1429 17.2084 37.4825 11.5 30.5 11.5C23.5176 11.5 17.8572 17.2084 17.8572 24.25C17.8572 31.2916 23.5176 37 30.5 37Z" fill="white"/>
<path fill-rule="evenodd" clip-rule="evenodd" d="M30.5001 32.75C35.1551 32.75 38.9287 28.9444 38.9287 24.25C38.9287 19.5556 35.1551 15.75 30.5001 15.75C25.8451 15.75 22.0715 19.5556 22.0715 24.25C22.0715 28.9444 25.8451 32.75 30.5001 32.75Z" stroke="#118014" stroke-width="2.82857" stroke-linecap="round" stroke-dasharray="1.41 4.24"/>
</g>
</svg>
